assets/sonr-icons/error-blockchain.svg

<svg xmlns="http://www.w3.org/2000/svg" width="24" height="24" fill="none"><path fill="currentColor" d="m14.093 6.135-.681-.919a3 3 0 0 0-5.385 1.371l-.149 1.09-1 .457A1.501 1.501 0 0 0 7.5 11H8a1 1 0 0 1 0 2h-.5a3.5 3.5 0 0 1-1.453-6.684 5.002 5.002 0 0 1 8.973-2.291q.237-.024.481-.025a4.5 4.5 0 0 1 .5 8.972c-.549.061-1-.42-1-.973s.459-.94 1-1.05a2.5 2.5 0 0 0-.769-4.936l-1.137.121-.001.002z"/><path fill="currentColor" d="M12.447 12.106a1 1 0 0 1 .447 1.342l-1.277 2.553h2.382c.346 0 .668.179.851.474a1 1 0 0 1 .043.973l-2 4a1 1 0 0 1-1.789-.895L12.381 18H9.999a1 1 0 0 1-.894-1.447l2-4a1 1 0 0 1 1.342-.447"/></svg>

<svg xmlns="http://www.w3.org/2000/svg" width="24" height="24" fill="none" viewBox="0 0 24 24"><path fill="#000" d="M14.093 6.135L13.412 5.216C12.862 4.474 11.986 4 10.999 4C9.483 4 8.227 5.126 8.027 6.587L7.878 7.677L6.878 8.134C6.356 8.373 6 8.897 6 9.5C6 10.329 6.671 11 7.5 11H8C8.552 11 9 11.448 9 12C9 12.552 8.552 13 8 13H7.5C5.567 13 4 11.433 4 9.5C4 8.085 4.839 6.867 6.047 6.316C6.381 3.878 8.472 2 11.001 2C12.648 2 14.109 2.797 15.02 4.025C15.178 4.009 15.338 4 15.501 4C17.987 4 20.001 6.014 20.001 8.5C20.001 10.816 18.251 12.724 16.001 12.972C15.452 13.033 15.001 12.552 15.001 11.999C15.001 11.446 15.46 11.059 16.001 10.949C17.142 10.717 18.001 9.709 18.001 8.499C18.001 7.118 16.882 5.999 15.501 5.999C15.41 5.999 15.32 6.003 15.232 6.013L14.095 6.134L14.094 6.136L14.093 6.135Z"/><path fill="#000" d="M12.447 12.106C12.941 12.353 13.141 12.953 12.894 13.448L11.617 16.001H13.999C14.345 16.001 14.667 16.18 14.85 16.475C15.033 16.77 15.049 17.138 14.893 17.448L12.893 21.448C12.646 21.942 12.045 22.142 11.551 21.895C11.057 21.648 10.857 21.047 11.104 20.553L12.381 18H9.999C9.652 18 9.331 17.821 9.148 17.526C8.965 17.231 8.949 16.863 9.105 16.553L11.105 12.553C11.352 12.059 11.953 11.859 12.447 12.106Z"/></svg>
